X:1
T: Tayside
C:
R:Jig
Q:180
K:D
M:6/8
L:1/16
|:d4A2 F4A2|G4B2 d2c2B2|A2B2c2 d2e2f2|g2a2f2 e2d2c2|
d4A2 F4A2|G4B2 d2c2B2|A2B2c2 d2e2f2|g2e2c2 d6:|
d4f2 A4f2|d4f2 a4f2|g2b2g2 f2a2f2|e2f2d2 c2B2A2|
d4f2 A4f2|d4f2 a2g2f2|g2b2g2 f2a2f2|g2e2c2 d6|
A4A2 A2B2c2|d2e2f2 g4e2|f4d2 d2c2d2|B2c2d2 e2c2A2|
A4A2 A2B2c2|d2e2f2 g4e2|f4d2 g4f2|e2d2c2 d6||
